X: 13
T: Paddy O'Rafferty
R: jig
M: 6/8
L: 1/8
K: Gmaj
A|BGE D2E|GAB c2A|BGE D2E|~G3 GED|BGE D2E|GAB d2e|dBG AGA|AGF G2:||:B|dBB d2e|dBB A2B|dBB dBA|~G3 GED|dBB d2e|dBd ~g2e|dBG AGA|AGF G2:|


Tune 741	Setting 4547

